X: 33621
T: Rakish Paddy
R: reel
M: 4/4
K: Adorian
c3 Bc2 AB|cBcG EG Gz|Add^c d2 g/f/e|d^cAG FGAB|
c2 cB c2 AB|cBcG ECCz|DEFG ABcA|dcAG FGAB|
c3 d c2 AB|cAG=F ECCE|Ddd^c d2 fe|d^cAG E/F/G AB|
cAdB cAdB|c/B/A G=F ECCE|D2 E/F/G ABcA|d^cAG FD B/c/d|
egfg agfg|egfg ed B/^c/d|ea^ga ba^ga|ea^ga ed^cd|
egfg afge|f/e/d e/d/^c defg|a/g/f g/f/e fde^c|d^cAG FD B/^c/d|
eg g/g/g ag g/g/g|egfg ed^cd|ea a/a/a ba a/a/a|ea^ga ed^cd|
egge afge|fde^c defg|a/g/f g/f/e fde^c|d^cAG E/F/G AB|c4|

